flaticon/transport/bicycle.svg

<svg xmlns="http://www.w3.org/2000/svg" width="32" height="32" viewBox="0 0 24 24">
    <path d="M 23.078125 0 L 20.121094 0 C 19.640625 0 19.265625 0.339844 19.207031 0.800781 L 17.375 0.800781 C 17.261719 0.753906 17.121094 0.765625 17 0.839844 L 13.199219 3.257812 L 13.199219 2.398438 C 13.199219 2.160156 13.039062 2 12.800781 2 L 11.199219 2 C 10.960938 2 10.800781 2.160156 10.800781 2.398438 L 10.800781 3.234375 L 7.039062 0.839844 C 6.917969 0.765625 6.78125 0.753906 6.664062 0.800781 L 4.792969 0.800781 C 4.734375 0.339844 4.359375 0 3.878906 0 L 0.921875 0 C 0.398438 0 0 0.398438 0 0.921875 L 0 1.480469 C 0 2 0.398438 2.398438 0.921875 2.398438 L 3.878906 2.398438 C 4.359375 2.398438 4.734375 2.058594 4.792969 1.601562 L 6.726562 1.601562 L 10.800781 4.191406 L 10.800781 4.800781 C 10.800781 5.039062 10.960938 5.199219 11.199219 5.199219 L 11.601562 5.199219 L 11.601562 5.761719 L 9.441406 6.839844 C 9.28125 6.921875 9.199219 7.039062 9.199219 7.199219 L 9.199219 8.398438 L 8.398438 8.398438 C 8.160156 8.398438 8 8.558594 8 8.800781 L 8 12.800781 C 8 12.921875 8.078125 13.078125 8.199219 13.160156 C 8.238281 13.199219 8.320312 13.199219 8.398438 13.199219 C 8.480469 13.199219 8.519531 13.199219 8.558594 13.160156 L 9.199219 12.839844 L 9.199219 15.199219 L 8 15.199219 C 7.761719 15.199219 7.601562 15.359375 7.601562 15.601562 L 7.601562 18 L 6.390625 18 C 6.335938 17.539062 5.960938 17.199219 5.480469 17.199219 L 3.71875 17.199219 C 3.199219 17.199219 2.800781 17.601562 2.800781 18.121094 L 2.800781 18.679688 C 2.800781 19.199219 3.199219 19.601562 3.71875 19.601562 L 5.480469 19.601562 C 5.960938 19.601562 6.335938 19.261719 6.390625 18.800781 L 8 18.800781 C 8.238281 18.800781 8.398438 18.640625 8.398438 18.398438 L 8.398438 16 L 9.199219 16 L 9.199219 18.800781 C 9.199219 18.960938 9.28125 19.078125 9.398438 19.160156 L 10.800781 19.859375 L 10.800781 22.800781 C 10.800781 23.480469 11.320312 24 12 24 C 12.679688 24 13.199219 23.480469 13.199219 22.800781 L 13.199219 19.859375 L 14.601562 19.160156 C 14.761719 19.078125 14.839844 18.960938 14.839844 18.800781 L 14.839844 16 L 15.601562 16 L 15.601562 18.398438 C 15.601562 18.640625 15.761719 18.800781 16 18.800781 L 17.609375 18.800781 C 17.664062 19.261719 18.039062 19.601562 18.519531 19.601562 L 20.28125 19.601562 C 20.800781 19.601562 21.199219 19.199219 21.199219 18.679688 L 21.199219 18.121094 C 21.199219 17.601562 20.800781 17.199219 20.28125 17.199219 L 18.519531 17.199219 C 17.960938 17.199219 17.601562 17.519531 17.601562 18 L 16.398438 18 L 16.398438 15.601562 C 16.398438 15.359375 16.238281 15.199219 16 15.199219 L 14.839844 15.199219 L 14.839844 12.859375 L 15.441406 13.160156 C 15.480469 13.199219 15.519531 13.199219 15.601562 13.199219 C 15.679688 13.199219 15.761719 13.199219 15.800781 13.160156 C 15.921875 13.078125 16 12.921875 16 12.800781 L 16 8.800781 C 16 8.558594 15.839844 8.398438 15.601562 8.398438 L 14.839844 8.398438 L 14.839844 7.199219 C 14.839844 7.039062 14.71875 6.921875 14.601562 6.839844 L 12.398438 5.738281 L 12.398438 5.199219 L 12.800781 5.199219 C 13.039062 5.199219 13.199219 5.039062 13.199219 4.800781 L 13.199219 4.21875 L 17.3125 1.601562 L 19.207031 1.601562 C 19.265625 2.058594 19.640625 2.398438 20.121094 2.398438 L 23.078125 2.398438 C 23.601562 2.398438 24 2 24 1.480469 L 24 0.921875 C 24 0.398438 23.601562 0 23.078125 0 Z M 4 1.480469 C 4 1.558594 3.960938 1.601562 3.878906 1.601562 L 0.921875 1.601562 C 0.839844 1.601562 0.800781 1.558594 0.800781 1.480469 L 0.800781 0.921875 C 0.800781 0.839844 0.839844 0.800781 0.921875 0.800781 L 3.878906 0.800781 C 3.960938 0.800781 4 0.839844 4 0.921875 Z M 5.601562 18.679688 C 5.601562 18.761719 5.558594 18.800781 5.480469 18.800781 L 3.71875 18.800781 C 3.640625 18.800781 3.601562 18.761719 3.601562 18.679688 L 3.601562 18.121094 C 3.601562 18.039062 3.640625 18 3.71875 18 L 5.480469 18 C 5.558594 18 5.601562 18.039062 5.601562 18.121094 Z M 18.519531 18 L 18.519531 18.039062 L 20.320312 18.039062 C 20.398438 18.039062 20.441406 18.078125 20.441406 18.160156 L 20.441406 18.71875 C 20.441406 18.800781 20.398438 18.839844 20.320312 18.839844 L 18.558594 18.839844 C 18.480469 18.839844 18.441406 18.800781 18.441406 18.71875 L 18.398438 18.039062 C 18.398438 18 18.441406 18 18.519531 18 Z M 8.800781 9.199219 L 10.398438 9.199219 L 10.398438 11.359375 L 9.441406 11.839844 L 8.800781 12.160156 Z M 12.398438 22.800781 C 12.398438 23.039062 12.238281 23.199219 12 23.199219 C 11.761719 23.199219 11.601562 23.039062 11.601562 22.800781 L 11.601562 13.601562 C 11.601562 13.359375 11.761719 13.199219 12 13.199219 C 12.238281 13.199219 12.398438 13.359375 12.398438 13.601562 Z M 15.199219 12.160156 L 14.679688 11.898438 C 14.652344 11.878906 14.625 11.859375 14.601562 11.839844 L 13.640625 11.359375 L 13.640625 9.199219 L 15.199219 9.199219 Z M 14 8.398438 L 13.199219 8.398438 C 12.960938 8.398438 12.800781 8.558594 12.800781 8.800781 L 12.800781 11.601562 C 12.800781 11.660156 12.8125 11.714844 12.832031 11.761719 C 12.871094 11.84375 12.941406 11.910156 13.039062 11.960938 L 14 12.441406 L 14 18.558594 L 13.199219 18.960938 L 13.199219 13.601562 C 13.199219 12.921875 12.679688 12.398438 12 12.398438 C 11.320312 12.398438 10.800781 12.921875 10.800781 13.601562 L 10.800781 18.960938 L 10 18.558594 L 10 12.441406 L 10.960938 11.960938 C 11.121094 11.878906 11.199219 11.761719 11.199219 11.601562 L 11.199219 8.800781 C 11.199219 8.558594 11.039062 8.398438 10.800781 8.398438 L 10 8.398438 L 10 7.441406 L 12 6.441406 L 14 7.441406 Z M 12.398438 4.398438 L 11.601562 4.398438 L 11.601562 4.117188 C 11.636719 4.015625 11.636719 3.914062 11.601562 3.824219 L 11.601562 2.800781 L 12.398438 2.800781 Z M 23.199219 1.480469 C 23.199219 1.558594 23.160156 1.601562 23.078125 1.601562 L 20.121094 1.601562 C 20.039062 1.601562 20 1.558594 20 1.480469 L 20 0.921875 C 20 0.839844 20.039062 0.800781 20.121094 0.800781 L 23.078125 0.800781 C 23.160156 0.800781 23.199219 0.839844 23.199219 0.921875 Z M 23.199219 1.480469"/>
</svg>

<svg xmlns="http://www.w3.org/2000/svg" width="32" height="32" viewBox="0 0 24 24">
    <path d="M23.078 0h-2.957c-.48 0-.855.34-.914.8h-1.832A.418.418 0 0 0 17 .84l-3.8 2.418v-.86c0-.238-.16-.398-.4-.398h-1.6c-.24 0-.4.16-.4.398v.836L7.04.84A.417.417 0 0 0 6.663.8H4.793a.905.905 0 0 0-.914-.8H.922A.904.904 0 0 0 0 .922v.558c0 .52.398.918.922.918h2.957c.48 0 .855-.34.914-.796h1.934l4.074 2.59V4.8c0 .238.16.398.398.398h.403v.563L9.442 6.84c-.16.082-.243.2-.243.36v1.198h-.8c-.239 0-.399.16-.399.403v4c0 .12.078.277.2.36.038.038.12.038.198.038.082 0 .122 0 .16-.039l.641-.32v2.36H8c-.238 0-.398.16-.398.402V18H6.39a.898.898 0 0 0-.91-.8H3.718a.906.906 0 0 0-.918.921v.559c0 .52.398.922.918.922H5.48c.48 0 .856-.34.91-.801H8c.238 0 .398-.16.398-.403V16H9.2v2.8c0 .16.082.278.2.36l1.402.7v2.94c0 .68.52 1.2 1.199 1.2.68 0 1.2-.52 1.2-1.2v-2.94l1.402-.7c.16-.082.238-.2.238-.36V16h.762v2.398c0 .243.16.403.398.403h1.61c.054.46.43.8.91.8h1.761c.52 0 .918-.402.918-.921v-.559a.906.906 0 0 0-.918-.922H18.52c-.56 0-.918.32-.918.801h-1.204v-2.398c0-.243-.16-.403-.398-.403h-1.16v-2.34l.601.301c.04.04.079.04.16.04.079 0 .16 0 .2-.04A.473.473 0 0 0 16 12.8v-4c0-.241-.16-.402-.398-.402h-.762V7.2c0-.16-.121-.277-.238-.36l-2.204-1.1v-.54h.403c.238 0 .398-.16.398-.398v-.582l4.114-2.617h1.894a.905.905 0 0 0 .914.796h2.957A.903.903 0 0 0 24 1.48V.922A.904.904 0 0 0 23.078 0zM4 1.48c0 .079-.04.122-.121.122H.922C.84 1.602.8 1.559.8 1.48V.922C.8.84.84.8.92.8H3.88C3.96.8 4 .84 4 .92zm1.602 17.2c0 .082-.043.12-.122.12H3.72c-.078 0-.117-.038-.117-.12v-.559c0-.082.039-.121.117-.121H5.48c.079 0 .122.04.122.121zM18.52 18v.04h1.8c.078 0 .121.038.121.12v.559c0 .082-.043.12-.12.12h-1.762c-.079 0-.118-.038-.118-.12l-.043-.68c0-.039.043-.039.122-.039zM8.8 9.2h1.598v2.16l-.957.48-.64.32zm3.598 13.6c0 .24-.16.4-.398.4-.238 0-.398-.16-.398-.4v-9.198c0-.243.16-.403.398-.403.238 0 .398.16.398.403zM15.2 12.16l-.52-.262c-.027-.02-.054-.039-.077-.058l-.961-.48V9.2h1.558zM14 8.398h-.8c-.24 0-.4.16-.4.403v2.8c0 .06.012.114.032.16.04.083.11.15.207.2l.961.48v6.118l-.8.402V13.6c0-.68-.52-1.203-1.2-1.203-.68 0-1.2.524-1.2 1.204v5.359l-.8-.402V12.44l.96-.48c.161-.082.24-.2.24-.36v-2.8c0-.242-.16-.403-.4-.403H10v-.957l2-1 2 1zm-1.602-4h-.796v-.28a.42.42 0 0 0 0-.294V2.801h.796zM23.2 1.48c0 .079-.039.122-.12.122H20.12c-.082 0-.121-.043-.121-.122V.922c0-.082.04-.121.121-.121h2.957c.082 0 .121.039.121.12zm0 0"/>
</svg>
